!!!SOCIAL_FUNCTION:	songs connected with legends
!!!PDT:	1918

Specific Region: Dakotas, Minnesota, Montana, Nebraska
!!!REG: Dakotas and Montana
!!!LING_GROUP: Siouan
!!!LANG: Tone
!!!OTL@ENG: Song of the Maiden's Leap
!!!ONM: No. 218
**kern
*Imale
*clefF4
*M2/4
*MM108
2e
=1||
*M3/4
2.e
=2
4.c
8A
4A
=3||
*M2/4
2d
=4||
*M3/4
[2d
8d]
8c
=5
4c
8c
8A
4A
=6
[2c
8c]
8A
=7||
*M2/4
4c
4c
=8
4A
4A
=9
[2A
=10||
*M3/4
2.A]
=11
2A
4c
=12||
*M2/4
4c
8G
8r
=13
4A
4A
=14
4E
4E
=15
[2E
=16||
*M3/4
2.E]
=17
2A
4d
=18||
*M2/4
4.d
8c
=19
4c
8c
8A
=20
4A
8A
8r
=21
4c
8c
8A
=22
4A
4A
=23
[2A
=24
2A]
=25
[2A
=26
2A]
=27
4A
4e
=28
4e
(8e
8d)
=29||
*M3/4
2c
4A
=30
2d
(8d
8c)
=31
(4.c
8A)
4A
=32
4c
4c
(8c
8A)
=33||
*M2/4
4c
(8c
8A)
=34
4A
4A
=35
[2A
=36||
*M3/4
2.A]
=37||
*M2/4
4A
4A
=38||
*M3/4
4c
4c
4G
=39||
*M2/4
4A
4A
=40
4E
4E
=41
[2E
=42||
*M3/4
2.E]
=43
4A
4A
4d
=44||
*M2/4
4.d
8c
=45
4c
8.c
16A
=46
4A
8A
8r
=47
4c
8.c
16A
=48
4A
4A
=49
[2A
=50
2A]
=51
4A
4r
==
*-
!!!CNT: Native American -- Sioux
!!!MRD: 1911/07//-1914///
!!!OCL: Frances Densmore
!!!YOR1: Teton Sioux Music, Bulletin 61,
!!!YOR2: Bureau of American Ethnology, Smithsonian Institution
!!!PPR: Government Printing Office
!!!PPP: Washington, D.C.
!!!PDT: 1918///
!!!ENC: Craig Stuart Sapp
!!!END: 2002/03/25/
!!!EEV: 2002/03/31/
!!!AGN: Legend Song
!!!MPN@@SIO: Waha'changka-ya'pi
!!!MPN@ENG: Used-as-a-Shield
!!!TXO: Teton Sioux
!!!MLC: Standing Rock Reservation, South Dakota, United States of America
!!!ARL: 45.9/-100.7#
!!!catalog: Catalogue No. 620
!!!PPG: 495
!!!EFL: 223/245
!!!VTS: 3819346932
